images/block-chain.svg

<svg height="250" viewBox="0 0 250 250" width="250" xmlns="http://www.w3.org/2000/svg"><g fill="#f9ae0c"><path d="m196.894531 192.664062c-18.777343 18.78125-43.746093 29.121094-70.300781 29.121094s-51.523438-10.339844-70.300781-29.121094c-18.777344-18.777343-29.117188-43.746093-29.117188-70.300781 0-26.554687 10.339844-51.519531 29.117188-70.296875 18.777343-18.78125 43.746093-29.125 70.300781-29.125s51.523438 10.34375 70.300781 29.125c18.777344 18.777344 29.121094 43.742188 29.121094 70.296875 0 26.554688-10.34375 51.523438-29.121094 70.300781m37.957031-116.035156c-5.917968-13.992187-14.386718-26.558594-25.175781-37.347656-10.789062-10.785156-23.351562-19.257812-37.34375-25.175781-14.492187-6.128907-29.878906-9.234375-45.738281-9.234375-15.855469 0-31.246094 3.105468-45.734375 9.234375-13.992187 5.917969-26.558594 14.390625-37.347656 25.175781-10.785157 10.789062-19.257813 23.355469-25.175781 37.347656-6.128907 14.488282-9.238282 29.878906-9.238282 45.734375 0 15.859375 3.109375 31.246094 9.238282 45.738281 5.917968 13.996094 14.390624 26.558594 25.175781 37.34375 10.789062 10.789063 23.355469 19.261719 37.347656 25.175782 14.488281 6.132812 29.878906 9.238281 45.734375 9.238281 15.859375 0 31.246094-3.105469 45.738281-9.238281 13.992188-5.914063 26.554688-14.386719 37.34375-25.175782 10.789063-10.785156 19.257813-23.347656 25.175781-37.34375 6.128907-14.492187 9.238282-29.878906 9.238282-45.738281 0-15.855469-3.109375-31.246093-9.238282-45.734375"/><path d="m162.800781 94.722656h-25.574219v-17.316406h24.980469c4.789063 0 8.6875 3.898438 8.6875 8.6875 0 4.585938-3.585937 8.316406-8.09375 8.628906m22.808594 4.324219c2.132813-3.84375 3.359375-8.253906 3.359375-12.953125 0-14.757812-12.003906-26.761719-26.761719-26.761719h-24.980469v-17.066406h-18.074218v52.515625h-18.484375c-24.984375 0-45.308594 20.324219-45.308594 45.308594 0 24.980468 20.324219 45.308594 45.308594 45.308594h18.484375v17.066406h18.074218v-17.066406h24.753907v-18.074219h-61.3125c-15.019531 0-27.234375-12.21875-27.234375-27.234375s12.214844-27.292969 27.234375-27.292969h18.484375v10.777344h18.074218v-10.777344h33.839844c4.792969 0 8.691406 3.894531 8.691406 8.6875 0 4.789063-3.898437 8.6875-8.691406 8.6875h-77.230468v18.070313h25.316406v12.53125h18.074218v-12.53125h33.839844c14.757813 0 26.761719-12.003907 26.761719-26.757813 0-9.398437-4.875-17.660156-12.21875-22.4375"/><path d="m112.609375 59.332031h-18.773437v18.074219h18.773437zm0 0"/></g></svg>

<svg xmlns="http://www.w3.org/2000/svg" xmlns:xlink="http://www.w3.org/1999/xlink" width="250px" height="250px" viewBox="0 0 250 250" version="1.1">
<g id="surface1">
<path style=" stroke:none;fill-rule:nonzero;fill:rgb(97.647059%,68.235296%,4.705882%);fill-opacity:1;" d="M 196.894531 192.664062 C 178.117188 211.445312 153.148438 221.785156 126.59375 221.785156 C 100.039062 221.785156 75.070312 211.445312 56.292969 192.664062 C 37.515625 173.886719 27.175781 148.917969 27.175781 122.363281 C 27.175781 95.808594 37.515625 70.84375 56.292969 52.066406 C 75.070312 33.285156 100.039062 22.941406 126.59375 22.941406 C 153.148438 22.941406 178.117188 33.285156 196.894531 52.066406 C 215.671875 70.84375 226.015625 95.808594 226.015625 122.363281 C 226.015625 148.917969 215.671875 173.886719 196.894531 192.664062 M 234.851562 76.628906 C 228.933594 62.636719 220.464844 50.070312 209.675781 39.28125 C 198.886719 28.496094 186.324219 20.023438 172.332031 14.105469 C 157.839844 7.976562 142.453125 4.871094 126.59375 4.871094 C 110.738281 4.871094 95.347656 7.976562 80.859375 14.105469 C 66.867188 20.023438 54.300781 28.496094 43.511719 39.28125 C 32.726562 50.070312 24.253906 62.636719 18.335938 76.628906 C 12.207031 91.117188 9.097656 106.507812 9.097656 122.363281 C 9.097656 138.222656 12.207031 153.609375 18.335938 168.101562 C 24.253906 182.097656 32.726562 194.660156 43.511719 205.445312 C 54.300781 216.234375 66.867188 224.707031 80.859375 230.621094 C 95.347656 236.753906 110.738281 239.859375 126.59375 239.859375 C 142.453125 239.859375 157.839844 236.753906 172.332031 230.621094 C 186.324219 224.707031 198.886719 216.234375 209.675781 205.445312 C 220.464844 194.660156 228.933594 182.097656 234.851562 168.101562 C 240.980469 153.609375 244.089844 138.222656 244.089844 122.363281 C 244.089844 106.507812 240.980469 91.117188 234.851562 76.628906 "/>
<path style=" stroke:none;fill-rule:nonzero;fill:rgb(97.647059%,68.235296%,4.705882%);fill-opacity:1;" d="M 162.800781 94.722656 L 137.226562 94.722656 L 137.226562 77.40625 L 162.207031 77.40625 C 166.996094 77.40625 170.894531 81.304688 170.894531 86.09375 C 170.894531 90.679688 167.308594 94.410156 162.800781 94.722656 M 185.609375 99.046875 C 187.742188 95.203125 188.96875 90.792969 188.96875 86.09375 C 188.96875 71.335938 176.964844 59.332031 162.207031 59.332031 L 137.226562 59.332031 L 137.226562 42.265625 L 119.152344 42.265625 L 119.152344 94.78125 L 100.667969 94.78125 C 75.683594 94.78125 55.359375 115.105469 55.359375 140.089844 C 55.359375 165.070312 75.683594 185.398438 100.667969 185.398438 L 119.152344 185.398438 L 119.152344 202.464844 L 137.226562 202.464844 L 137.226562 185.398438 L 161.980469 185.398438 L 161.980469 167.324219 L 100.667969 167.324219 C 85.648438 167.324219 73.433594 155.105469 73.433594 140.089844 C 73.433594 125.074219 85.648438 112.796875 100.667969 112.796875 L 119.152344 112.796875 L 119.152344 123.574219 L 137.226562 123.574219 L 137.226562 112.796875 L 171.066406 112.796875 C 175.859375 112.796875 179.757812 116.691406 179.757812 121.484375 C 179.757812 126.273438 175.859375 130.171875 171.066406 130.171875 L 93.835938 130.171875 L 93.835938 148.242188 L 119.152344 148.242188 L 119.152344 160.773438 L 137.226562 160.773438 L 137.226562 148.242188 L 171.066406 148.242188 C 185.824219 148.242188 197.828125 136.238281 197.828125 121.484375 C 197.828125 112.085938 192.953125 103.824219 185.609375 99.046875 "/>
<path style=" stroke:none;fill-rule:nonzero;fill:rgb(97.647059%,68.235296%,4.705882%);fill-opacity:1;" d="M 112.609375 59.332031 L 93.835938 59.332031 L 93.835938 77.40625 L 112.609375 77.40625 Z M 112.609375 59.332031 "/>
</g>
</svg>
